editor/icons/Script.svg

<svg height="16" viewBox="0 0 16 16" width="16" xmlns="http://www.w3.org/2000/svg"><g transform="translate(0 -1036.4)"><path d="m6 1v1a1 1 0 0 0 -1 1v10h-1v-2h-2v2a1 1 0 0 0 .5.86523 1 1 0 0 0 .5.13477v1h7a2 2 0 0 0 2-2v-8h3v-2a2 2 0 0 0 -2-2z" fill="#e0e0e0" transform="translate(0 1036.4)"/><path d="m6 1c-1.1046 0-2 .89543-2 2v7h-2-1v1 2c0 1.1046.89543 2 2 2s2-.89543 2-2v-10c0-.55228.44772-1 1-1s1 .44772 1 1v1 1 1h1 4v-1h-4v-1-1c0-1.1046-.89543-2-2-2zm-4 10h2v2c0 .55228-.44772 1-1 1s-1-.44772-1-1z" fill="#b3b3b3" transform="translate(0 1036.4)"/><circle cx="3" cy="1048.4" fill="#e0e0e0"/></g></svg>

<svg height="16" viewBox="0 0 16 16" width="16" xmlns="http://www.w3.org/2000/svg"><path d="M6 1v1a1 1 0 0 0-1 1v10H4v-2H2v2a1 1 0 0 0 .5.865A1 1 0 0 0 3 14v1h7a2 2 0 0 0 2-2V5h3V3a2 2 0 0 0-2-2z" fill="#e0e0e0"/><path d="M6 1a2 2 0 0 0-2 2v7H1v3a2 2 0 1 0 4 0V3a1 1 0 0 1 2 0v3h5V5H8V3a2 2 0 0 0-2-2zM2 11h2v2a1 1 0 0 1-2 0z" fill="#b3b3b3"/></svg>
